src/assets/icons/twitch.svg

<svg fill="none" height="27" viewBox="0 0 23 27" width="23" xmlns="http://www.w3.org/2000/svg"><path d="m5.016 18.0278h3.49506v3.3987l6.58834-3.0853 3.0853-1.0284 3.6076-4.5235v-11.32079l-16.26208.10445-2.77998 4.94128.92398 11.73056 1.34178-.2009z" fill="#fefefe"/><path d="m4.9197.80957-4.531516 4.53152v16.80841h5.543886v4.5717l4.60383-4.6038h3.7843l8.2998-8.2998v-13.00803zm15.7719 12.09213-3.6396 3.6396h-3.7201l-3.2379 3.238v-3.2621h-4.1539v-13.8195h14.7515z" fill="#1a0233"/><g fill="#303030"><path d="m12.8015 5.8313h-1.7917v5.6564h1.7917z"/><path d="m17.9277 5.8313h-1.7917v5.6564h1.7917z"/></g></svg>

<svg width="23" height="27" viewBox="0 0 23 27" fill="none" xmlns="http://www.w3.org/2000/svg">
<path d="M5.016 18.0278H8.51106V21.4265L15.0994 18.3412L18.1847 17.3128L21.7923 12.7893V1.46851L5.53022 1.57296L2.75024 6.51424L3.67422 18.2448L5.016 18.0439V18.0278Z" fill="#FEFEFE"/>
<path d="M4.9197 0.80957L0.388184 5.34109V22.1495H5.93207V26.7212L10.5359 22.1174H14.3202L22.62 13.8176V0.80957H4.9197ZM20.6916 12.9017L17.052 16.5413H13.3319L10.094 19.7793V16.5172H5.9401V2.6977H20.6916V12.9017Z" fill="#1A0233"/>
<path d="M12.8015 5.8313H11.0098V11.4877H12.8015V5.8313Z" fill="#303030"/>
<path d="M17.9277 5.8313H16.136V11.4877H17.9277V5.8313Z" fill="#303030"/>
</svg>
